;FLAVOR:Marlin
;TIME:4440
;Filament used: 8.54151m
;Layer height: 0.4
;MINX:4.521
;MINY:4.996
;MINZ:0.3
;MAXX:115.479
;MAXY:116.269
;MAXZ:22.7
;Generated with Cura_SteamEngine master
M104 S200
M105
M109 S200
M82 ;absolute extrusion mode
G28 ;Home
G1 Z15.0 F6000 ;Move the platform down 15mm
;Prime the extruder
G92 E0
G1 F200 E3
G92 E0
G92 E0
G92 E0
G1 F1500 E-6.5
;LAYER_COUNT:57
;LAYER:0
M107
G0 F3600 X6.944 Y7.145 Z0.3
;TYPE:SKIRT
G1 F1500 E0
G1 F1800 X7.543 Y6.63 E0.03941
G1 X8.191 Y6.179 E0.0788
G1 X8.882 Y5.795 E0.11824
G1 X9.607 Y5.483 E0.15762
G1 X10.36 Y5.246 E0.197
G1 X11.134 Y5.087 E0.23642
G1 X11.919 Y5.006 E0.27579
G1 X12.321 Y4.996 E0.29586
G1 X107.679 Y4.996 E5.05329
G1 X108.468 Y5.036 E5.0927
G1 X109.248 Y5.155 E5.13206
G1 X110.013 Y5.353 E5.17149
G1 X110.753 Y5.627 E5.21086
G1 X111.462 Y5.975 E5.25026
G1 X112.133 Y6.393 E5.2897
G1 X112.757 Y6.876 E5.32907
G1 X113.33 Y7.419 E5.36845
G1 X113.845 Y8.018 E5.40786
G1 X114.296 Y8.666 E5.44725
G1 X114.68 Y9.357 E5.48669
G1 X114.992 Y10.082 E5.52607
G1 X115.229 Y10.835 E5.56545
G1 X115.388 Y11.609 E5.60487
G1 X115.469 Y12.394 E5.64425
G1 X115.479 Y12.796 E5.66431
G1 X115.479 Y108.469 E10.43745
G1 X115.439 Y109.258 E10.47687
G1 X115.32 Y110.038 E10.51623
G1 X115.122 Y110.803 E10.55566
G1 X114.848 Y111.543 E10.59502
G1 X114.5 Y112.252 E10.63443
G1 X114.082 Y112.923 E10.67387
G1 X113.599 Y113.547 E10.71324
G1 X113.056 Y114.12 E10.75262
G1 X112.457 Y114.635 E10.79203
G1 X111.809 Y115.086 E10.83142
G1 X111.118 Y115.47 E10.87086
G1 X110.393 Y115.782 E10.91024
G1 X109.64 Y116.019 E10.94962
G1 X108.866 Y116.178 E10.98904
G1 X108.081 Y116.259 E11.02841
G1 X107.679 Y116.269 E11.04847
G1 X12.321 Y116.269 E15.8059
G1 X11.532 Y116.229 E15.84532
G1 X10.752 Y116.11 E15.88468
G1 X9.987 Y115.912 E15.92411
G1 X9.247 Y115.638 E15.96348
G1 X8.538 Y115.29 E16.00288
G1 X7.867 Y114.872 E16.04232
G1 X7.243 Y114.389 E16.08169
G1 X6.67 Y113.846 E16.12107
G1 X6.155 Y113.247 E16.16048
G1 X5.704 Y112.599 E16.19987
G1 X5.32 Y111.908 E16.23931
G1 X5.008 Y111.183 E16.27869
G1 X4.771 Y110.43 E16.31807
G1 X4.612 Y109.656 E16.35749
G1 X4.531 Y108.871 E16.39686
G1 X4.521 Y108.469 E16.41693
G1 X4.521 Y12.796 E21.19007
G1 X4.561 Y12.007 E21.22949
G1 X4.68 Y11.227 E21.26885
G1 X4.878 Y10.462 E21.30827
G1 X5.152 Y9.722 E21.34764
G1 X5.5 Y9.013 E21.38705
G1 X5.918 Y8.342 E21.42649
G1 X6.401 Y7.718 E21.46585
G1 X6.944 Y7.145 E21.50524
G0 F3600 X7.337 Y7.326
G1 F1800 X7.932 Y6.838 E21.54363
G1 X8.574 Y6.415 E21.58199
G1 X9.257 Y6.06 E21.62039
G1 X9.972 Y5.779 E21.65872
G1 X10.714 Y5.573 E21.69714
G1 X11.472 Y5.445 E21.73549
G1 X12.321 Y5.396 E21.77792
G1 X107.679 Y5.396 E26.53535
G1 X108.447 Y5.436 E26.57371
G1 X109.207 Y5.555 E26.61209
G1 X109.95 Y5.753 E26.65045
G1 X110.669 Y6.027 E26.68884
G1 X111.355 Y6.374 E26.7272
G1 X112.002 Y6.79 E26.76557
G1 X112.602 Y7.271 E26.80394
G1 X113.149 Y7.812 E26.84232
G1 X113.637 Y8.407 E26.88071
G1 X114.06 Y9.049 E26.91907
G1 X114.415 Y9.732 E26.95747
G1 X114.696 Y10.447 E26.9958
G1 X114.902 Y11.189 E27.03422
G1 X115.03 Y11.947 E27.07257
G1 X115.079 Y12.796 E27.115
G1 X115.079 Y108.469 E31.88814
G1 X115.039 Y109.237 E31.92651
G1 X114.92 Y109.997 E31.96489
G1 X114.722 Y110.74 E32.00325
G1 X114.448 Y111.459 E32.04164
G1 X114.101 Y112.145 E32.07999
G1 X113.685 Y112.792 E32.11837
G1 X113.204 Y113.392 E32.15673
G1 X112.663 Y113.939 E32.19512
G1 X112.068 Y114.427 E32.23351
G1 X111.426 Y114.85 E32.27186
G1 X110.743 Y115.205 E32.31027
G1 X110.028 Y115.486 E32.34859
G1 X109.286 Y115.692 E32.38701
G1 X108.528 Y115.82 E32.42536
G1 X107.679 Y115.869 E32.46779
G1 X12.321 Y115.869 E37.22522
G1 X11.553 Y115.829 E37.26359
G1 X10.793 Y115.71 E37.30197
G1 X10.05 Y115.512 E37.34033
G1 X9.331 Y115.238 E37.37872
G1 X8.645 Y114.891 E37.41707
G1 X7.998 Y114.475 E37.45545
G1 X7.398 Y113.994 E37.49381
G1 X6.851 Y113.453 E37.5322
G1 X6.363 Y112.858 E37.57059
G1 X5.94 Y112.216 E37.60894
G1 X5.585 Y111.533 E37.64735
G1 X5.304 Y110.818 E37.68567
G1 X5.098 Y110.076 E37.72409
G1 X4.97 Y109.318 E37.76245
G1 X4.921 Y108.469 E37.80487
G1 X4.921 Y12.796 E42.57802
G1 X4.961 Y12.028 E42.61639
G1 X5.08 Y11.268 E42.65476
G1 X5.278 Y10.525 E42.69313
G1 X5.552 Y9.806 E42.73151
G1 X5.899 Y9.12 E42.76987
G1 X6.315 Y8.473 E42.80824
G1 X6.796 Y7.873 E42.84661
G1 X7.337 Y7.326 E42.88499
G0 F3600 X7.729 Y7.512
G1 F1800 X8.319 Y7.053 E42.92229
G1 X8.955 Y6.658 E42.95964
G1 X9.629 Y6.334 E42.99695
G1 X10.334 Y6.084 E43.03427
G1 X11.062 Y5.91 E43.07161
G1 X11.804 Y5.815 E43.10893
G1 X12.321 Y5.796 E43.13474
G1 X107.679 Y5.796 E47.89217
G1 X108.426 Y5.836 E47.92949
G1 X109.164 Y5.955 E47.96679
G1 X109.886 Y6.153 E48.00414
G1 X110.582 Y6.426 E48.04144
G1 X111.245 Y6.773 E48.07877
G1 X111.868 Y7.188 E48.11612
G1 X112.442 Y7.667 E48.15341
G1 X112.963 Y8.204 E48.19074
G1 X113.422 Y8.794 E48.22804
G1 X113.817 Y9.43 E48.26539
G1 X114.141 Y10.104 E48.3027
G1 X114.391 Y10.809 E48.34002
G1 X114.565 Y11.537 E48.37736
G1 X114.66 Y12.279 E48.41468
G1 X114.679 Y12.796 E48.44049
G1 X114.679 Y108.469 E53.21363
G1 X114.639 Y109.216 E53.25096
G1 X114.52 Y109.954 E53.28825
G1 X114.322 Y110.676 E53.3256
G1 X114.049 Y111.372 E53.3629
G1 X113.702 Y112.035 E53.40023
G1 X113.287 Y112.658 E53.43758
G1 X112.808 Y113.232 E53.47488
G1 X112.271 Y113.753 E53.51221
G1 X111.681 Y114.212 E53.5495
G1 X111.045 Y114.607 E53.58685
G1 X110.371 Y114.931 E53.62416
G1 X109.666 Y115.181 E53.66148
G1 X108.938 Y115.355 E53.69882
G1 X108.196 Y115.45 E53.73614
G1 X107.679 Y115.469 E53.76195
G1 X12.321 Y115.469 E58.51938
G1 X11.574 Y115.429 E58.55671
G1 X10.836 Y115.31 E58.594
G1 X10.114 Y115.112 E58.63135
G1 X9.418 Y114.839 E58.66865
G1 X8.755 Y114.492 E58.70598
G1 X8.132 Y114.077 E58.74333
G1 X7.558 Y113.598 E58.78063
G1 X7.037 Y113.061 E58.81796
G1 X6.578 Y112.471 E58.85525
G1 X6.183 Y111.835 E58.8926
G1 X5.859 Y111.161 E58.92991
G1 X5.609 Y110.456 E58.96723
G1 X5.435 Y109.728 E59.00457
G1 X5.34 Y108.986 E59.04189
G1 X5.321 Y108.469 E59.0677
G1 X5.321 Y12.796 E63.84085
G1 X5.361 Y12.049 E63.87817
G1 X5.48 Y11.311 E63.91547
G1 X5.678 Y10.589 E63.95282
G1 X5.951 Y9.893 E63.99012
G1 X6.298 Y9.23 E64.02745
G1 X6.713 Y8.607 E64.0648
G1 X7.192 Y8.033 E64.10209
G1 X7.729 Y7.512 E64.13942
G0 F3600 X7.586 Y8.198
G1 F1800 X8.12 Y7.705 E64.17568
G1 X8.705 Y7.275 E64.2119
G1 X9.334 Y6.911 E64.24816
G1 X9.999 Y6.618 E64.28441
G1 X10.692 Y6.4 E64.32066
G1 X11.404 Y6.26 E64.35686
G1 X12.321 Y6.196 E64.40272
G1 X107.679 Y6.196 E69.16015
G1 X108.404 Y6.236 E69.19638
G1 X109.121 Y6.355 E69.23264
G1 X109.82 Y6.553 E69.26888
G1 X110.493 Y6.826 E69.30512
G1 X111.132 Y7.171 E69.34135
G1 X111.729 Y7.585 E69.37759
G1 X112.277 Y8.061 E69.4138
G1 X112.77 Y8.595 E69.45006
G1 X113.2 Y9.18 E69.48629
G1 X113.564 Y9.809 E69.52254
G1 X113.857 Y10.474 E69.5588
G1 X114.075 Y11.167 E69.59504
G1 X114.215 Y11.879 E69.63124
G1 X114.279 Y12.796 E69.6771
G1 X114.279 Y108.469 E74.45025
G1 X114.239 Y109.194 E74.48647
G1 X114.12 Y109.911 E74.52274
G1 X113.922 Y110.61 E74.55898
G1 X113.649 Y111.283 E74.59521
G1 X113.304 Y111.922 E74.63144
G1 X112.89 Y112.519 E74.66769
G1 X112.414 Y113.067 E74.7039
G1 X111.88 Y113.56 E74.74016
G1 X111.295 Y113.99 E74.77638
G1 X110.666 Y114.354 E74.81264
G1 X110.001 Y114.647 E74.84889
G1 X109.308 Y114.865 E74.88514
G1 X108.596 Y115.005 E74.92134
G1 X107.679 Y115.069 E74.9672
G1 X12.321 Y115.069 E79.72463
G1 X11.596 Y115.029 E79.76086
G1 X10.879 Y114.91 E79.79712
G1 X10.18 Y114.712 E79.83336
G1 X9.507 Y114.439 E79.8696
G1 X8.868 Y114.094 E79.90583
G1 X8.271 Y113.68 E79.94207
G1 X7.723 Y113.204 E79.97828
G1 X7.23 Y112.67 E80.01454
G1 X6.8 Y112.085 E80.05077
G1 X6.436 Y111.456 E80.08702
G1 X6.143 Y110.791 E80.12328
G1 X5.925 Y110.098 E80.15952
G1 X5.785 Y109.386 E80.19572
G1 X5.721 Y108.469 E80.24158
G1 X5.721 Y12.796 E85.01473
G1 X5.761 Y12.071 E85.05095
G1 X5.88 Y11.354 E85.08722
G1 X6.078 Y10.655 E85.12346
G1 X6.351 Y9.982 E85.15969
G1 X6.696 Y9.343 E85.19592
G1 X7.11 Y8.746 E85.23217
G1 X7.586 Y8.198 E85.26838
G0 F3600 X7.98 Y8.369
G1 F1800 X8.51 Y7.905 E85.30353
G1 X9.089 Y7.505 E85.33863
G1 X9.71 Y7.173 E85.37377
G1 X10.364 Y6.913 E85.40888
G1 X11.044 Y6.729 E85.44402
G1 X11.74 Y6.623 E85.47915
G1 X12.321 Y6.596 E85.50817
G1 X107.679 Y6.596 E90.2656
G1 X108.382 Y6.636 E90.30072
G1 X109.076 Y6.755 E90.33585
G1 X109.751 Y6.953 E90.37095
G1 X110.4 Y7.225 E90.40606
G1 X111.014 Y7.57 E90.44119
G1 X111.585 Y7.981 E90.47629
G1 X112.106 Y8.455 E90.51143
G1 X112.57 Y8.985 E90.54658
G1 X112.97 Y9.564 E90.58169
G1 X113.302 Y10.185 E90.61682
G1 X113.562 Y10.839 E90.65193
G1 X113.746 Y11.519 E90.68707
G1 X113.852 Y12.215 E90.7222
G1 X113.879 Y12.796 E90.75122
G1 X113.879 Y108.469 E95.52436
G1 X113.839 Y109.172 E95.55949
G1 X113.72 Y109.866 E95.59462
G1 X113.522 Y110.541 E95.62972
G1 X113.25 Y111.19 E95.66482
G1 X112.905 Y111.804 E95.69996
G1 X112.494 Y112.375 E95.73506
G1 X112.02 Y112.896 E95.7702
G1 X111.49 Y113.36 E95.80534
G1 X110.911 Y113.76 E95.84045
G1 X110.29 Y114.092 E95.87558
G1 X109.636 Y114.352 E95.9107
G1 X108.956 Y114.536 E95.94584
G1 X108.26 Y114.642 E95.98097
G1 X107.679 Y114.669 E96.00998
G1 X12.321 Y114.669 E100.76741
G1 X11.618 Y114.629 E100.80254
G1 X10.924 Y114.51 E100.83767
G1 X10.249 Y114.312 E100.87277
G1 X9.6 Y114.04 E100.90787
G1 X8.986 Y113.695 E100.94301
G1 X8.415 Y113.284 E100.97811
G1 X7.894 Y112.81 E101.01325
G1 X7.43 Y112.28 E101.04839
G1 X7.03 Y111.701 E101.0835
G1 X6.698 Y111.08 E101.11863
G1 X6.438 Y110.426 E101.15375
G1 X6.254 Y109.746 E101.18889
G1 X6.148 Y109.05 E101.22402
G1 X6.121 Y108.469 E101.25303
G1 X6.121 Y12.796 E106.02618
G1 X6.161 Y12.093 E106.06131
G1 X6.28 Y11.399 E106.09644
G1 X6.478 Y10.724 E106.13153
G1 X6.75 Y10.075 E106.16664
G1 X7.095 Y9.461 E106.20178
G1 X7.506 Y8.89 E106.23688
G1 X7.98 Y8.369 E106.27202
G0 F3600 X8.374 Y8.547
G1 F1800 X8.899 Y8.113 E106.306
G1 X9.471 Y7.744 E106.33996
G1 X10.083 Y7.445 E106.37394
G1 X10.725 Y7.22 E106.40788
G1 X11.39 Y7.071 E106.44188
G1 X12.321 Y6.996 E106.48848
G1 X107.679 Y6.996 E111.24591
G1 X108.359 Y7.036 E111.27989
G1 X109.029 Y7.155 E111.31384
G1 X109.681 Y7.352 E111.34782
G1 X110.305 Y7.624 E111.38178
G1 X110.893 Y7.968 E111.41577
G1 X111.437 Y8.378 E111.44976
G1 X111.928 Y8.849 E111.4837
G1 X112.362 Y9.374 E111.51768
G1 X112.731 Y9.946 E111.55164
G1 X113.03 Y10.558 E111.58563
G1 X113.255 Y11.2 E111.61957
G1 X113.404 Y11.865 E111.65357
G1 X113.479 Y12.796 E111.70016
G1 X113.479 Y108.469 E116.47331
G1 X113.439 Y109.149 E116.50729
G1 X113.32 Y109.819 E116.54124
G1 X113.123 Y110.471 E116.57522
G1 X112.851 Y111.095 E116.60918
G1 X112.507 Y111.683 E116.64317
G1 X112.097 Y112.227 E116.67716
G1 X111.626 Y112.718 E116.7111
G1 X111.101 Y113.152 E116.74508
G1 X110.529 Y113.521 E116.77904
G1 X109.917 Y113.82 E116.81303
G1 X109.275 Y114.045 E116.84697
G1 X108.61 Y114.194 E116.88097
G1 X107.679 Y114.269 E116.92756
G1 X12.321 Y114.269 E121.68499
G1 X11.641 Y114.229 E121.71898
G1 X10.971 Y114.11 E121.75293
G1 X10.319 Y113.913 E121.78691
G1 X9.695 Y113.641 E121.82087
G1 X9.107 Y113.297 E121.85486
G1 X8.563 Y112.887 E121.88884
G1 X8.072 Y112.416 E121.92278
G1 X7.638 Y111.891 E121.95677
G1 X7.269 Y111.319 E121.99073
G1 X6.97 Y110.707 E122.02471
G1 X6.745 Y110.065 E122.05865
G1 X6.596 Y109.4 E122.09265
G1 X6.521 Y108.469 E122.13925
G1 X6.521 Y12.796 E126.91239
G1 X6.561 Y12.116 E126.94638
G1 X6.68 Y11.446 E126.98033
G1 X6.877 Y10.794 E127.01431
G1 X7.149 Y10.17 E127.04827
G1 X7.493 Y9.582 E127.08225
G1 X7.903 Y9.038 E127.11624
G1 X8.374 Y8.547 E127.15018
G0 F3600 X8.766 Y8.731
G1 F1800 X9.286 Y8.33 E127.18295
G1 X9.85 Y7.994 E127.2157
G1 X10.452 Y7.73 E127.24849
G1 X11.081 Y7.54 E127.28127
G1 X11.728 Y7.429 E127.31403
G1 X12.321 Y7.396 E127.34366
G1 X107.679 Y7.396 E132.10109
G1 X108.335 Y7.436 E132.13387
G1 X108.981 Y7.555 E132.16665
G1 X109.608 Y7.752 E132.19943
G1 X110.206 Y8.024 E132.23221
G1 X110.767 Y8.366 E132.26499
G1 X111.282 Y8.774 E132.29777
G1 X111.744 Y9.241 E132.33054
G1 X112.145 Y9.761 E132.3633
G1 X112.481 Y10.325 E132.39606
G1 X112.745 Y10.927 E132.42885
G1 X112.935 Y11.556 E132.46163
G1 X113.046 Y12.203 E132.49438
G1 X113.079 Y12.796 E132.52401
G1 X113.079 Y108.469 E137.29716
G1 X113.039 Y109.125 E137.32995
G1 X112.92 Y109.771 E137.36272
G1 X112.723 Y110.398 E137.39551
G1 X112.451 Y110.996 E137.42828
G1 X112.109 Y111.557 E137.46106
G1 X111.701 Y112.072 E137.49384
G1 X111.234 Y112.534 E137.52662
G1 X110.714 Y112.935 E137.55938
G1 X110.15 Y113.271 E137.59213
G1 X109.548 Y113.535 E137.62492
G1 X108.919 Y113.725 E137.65771
G1 X108.272 Y113.836 E137.69046
G1 X107.679 Y113.869 E137.72009
G1 X12.321 Y113.869 E142.47752
G1 X11.665 Y113.829 E142.51031
G1 X11.019 Y113.71 E142.54308
G1 X10.392 Y113.513 E142.57587
G1 X9.794 Y113.241 E142.60864
G1 X9.233 Y112.899 E142.64142
G1 X8.718 Y112.491 E142.6742
G1 X8.256 Y112.024 E142.70697
G1 X7.855 Y111.504 E142.73973
G1 X7.519 Y110.94 E142.77249
G1 X7.255 Y110.338 E142.80528
G1 X7.065 Y109.709 E142.83806
G1 X6.954 Y109.062 E142.87081
G1 X6.921 Y108.469 E142.90044
G1 X6.921 Y12.796 E147.67359
G1 X6.961 Y12.14 E147.70638
G1 X7.08 Y11.494 E147.73915
G1 X7.277 Y10.867 E147.77194
G1 X7.549 Y10.269 E147.80471
G1 X7.891 Y9.708 E147.83749
G1 X8.299 Y9.193 E147.87027
G1 X8.766 Y8.731 E147.90305
G0 F3600 X8.694 Y9.355
G1 F1800 X9.157 Y8.925 E147.93457
G1 X9.671 Y8.556 E147.96614
G1 X10.227 Y8.256 E147.99766
G1 X10.816 Y8.028 E148.02917
G1 X11.43 Y7.876 E148.06072
G1 X12.321 Y7.796 E148.10536
G1 X107.679 Y7.796 E152.86279
G1 X108.31 Y7.836 E152.89433
G1 X108.931 Y7.955 E152.92588
G1 X109.531 Y8.152 E152.95738
G1 X110.103 Y8.423 E152.98896
G1 X110.635 Y8.763 E153.02046
G1 X111.12 Y9.169 E153.05201
G1 X111.55 Y9.632 E153.08354
G1 X111.919 Y10.146 E153.11511
G1 X112.219 Y10.702 E153.14663
G1 X112.447 Y11.291 E153.17814
G1 X112.599 Y11.905 E153.20969
G1 X112.679 Y12.796 E153.25432
G1 X112.679 Y108.469 E158.02747
G1 X112.639 Y109.1 E158.05901
G1 X112.52 Y109.721 E158.09056
G1 X112.323 Y110.321 E158.12207
G1 X112.052 Y110.893 E158.15364
G1 X111.712 Y111.425 E158.18514
G1 X111.306 Y111.91 E158.2167
G1 X110.843 Y112.34 E158.24822
G1 X110.329 Y112.709 E158.27979
G1 X109.773 Y113.009 E158.31131
G1 X109.184 Y113.237 E158.34282
G1 X108.57 Y113.389 E158.37438
G1 X107.679 Y113.469 E158.41901
G1 X12.321 Y113.469 E163.17644
G1 X11.69 Y113.429 E163.20798
G1 X11.069 Y113.31 E163.23953
G1 X10.469 Y113.113 E163.27103
G1 X9.897 Y112.842 E163.30261
G1 X9.365 Y112.502 E163.33411
G1 X8.88 Y112.096 E163.36567
G1 X8.45 Y111.633 E163.39719
G1 X8.081 Y111.119 E163.42876
G1 X7.781 Y110.563 E163.46028
G1 X7.553 Y109.974 E163.49179
G1 X7.401 Y109.36 E163.52334
G1 X7.321 Y108.469 E163.56798
G1 X7.321 Y12.796 E168.34112
G1 X7.361 Y12.165 E168.37266
G1 X7.48 Y11.544 E168.40421
G1 X7.677 Y10.944 E168.43572
G1 X7.948 Y10.372 E168.46729
G1 X8.288 Y9.84 E168.49879
G1 X8.694 Y9.355 E168.53035
G0 F3600 X9.088 Y9.524
G1 F1800 X9.546 Y9.127 E168.56059
G1 X10.053 Y8.794 E168.59085
G1 X10.599 Y8.53 E168.62111
G1 X11.175 Y8.341 E168.65135
G1 X11.771 Y8.229 E168.68161
G1 X12.321 Y8.196 E168.7091
G1 X107.679 Y8.196 E173.46653
G1 X108.284 Y8.236 E173.49678
G1 X108.878 Y8.355 E173.527
G1 X109.452 Y8.551 E173.55726
G1 X109.995 Y8.822 E173.58754
G1 X110.498 Y9.161 E173.6178
G1 X110.951 Y9.563 E173.64801
G1 X111.348 Y10.021 E173.67825
G1 X111.681 Y10.528 E173.70852
G1 X111.945 Y11.074 E173.73877
G1 X112.134 Y11.65 E173.76902
G1 X112.246 Y12.246 E173.79927
G1 X112.279 Y12.796 E173.82676
G1 X112.279 Y108.469 E178.59991
G1 X112.239 Y109.074 E178.63016
G1 X112.12 Y109.668 E178.66038
G1 X111.924 Y110.242 E178.69064
G1 X111.653 Y110.785 E178.72092
G1 X111.314 Y111.288 E178.75118
G1 X110.912 Y111.741 E178.78139
G1 X110.454 Y112.138 E178.81163
G1 X109.947 Y112.471 E178.8419
G1 X109.401 Y112.735 E178.87215
G1 X108.825 Y112.924 E178.9024
G1 X108.229 Y113.036 E178.93265
G1 X107.679 Y113.069 E178.96014
G1 X12.321 Y113.069 E183.71757
G1 X11.716 Y113.029 E183.74782
G1 X11.122 Y112.91 E183.77804
G1 X10.548 Y112.714 E183.80831
G1 X10.005 Y112.443 E183.83858
G1 X9.502 Y112.104 E183.86884
G1 X9.049 Y111.702 E183.89906
G1 X8.652 Y111.244 E183.9293
G1 X8.319 Y110.737 E183.95956
