;FLAVOR:Marlin
;TIME:4194
;Filament used: 8.11975m
;Layer height: 0.4
;MINX:4.175
;MINY:4.332
;MINZ:0.3
;MAXX:115.825
;MAXY:115.668
;MAXZ:21.9
;Generated with Cura_SteamEngine master
M104 S200
M105
M109 S200
M82 ;absolute extrusion mode
G28 ;Home
G1 Z15.0 F6000 ;Move the platform down 15mm
;Prime the extruder
G92 E0
G1 F200 E3
G92 E0
G92 E0
G92 E0
G1 F1500 E-6.5
;LAYER_COUNT:55
;LAYER:0
M107
G0 F3600 X6.576 Y6.88 Z0.3
;TYPE:SKIRT
G1 F1500 E0
G1 F1800 X7.173 Y6.363 E0.0394
G1 X7.819 Y5.909 E0.07879
G1 X8.508 Y5.523 E0.11819
G1 X9.232 Y5.208 E0.15759
G1 X9.984 Y4.968 E0.19697
G1 X10.757 Y4.806 E0.23637
G1 X11.542 Y4.722 E0.27576
G1 X11.944 Y4.71 E0.29582
G1 X107.617 Y4.332 E5.069
G1 X108.406 Y4.369 E5.10841
G1 X109.187 Y4.485 E5.1478
G1 X109.952 Y4.68 E5.18719
G1 X110.694 Y4.951 E5.2266
G1 X111.404 Y5.296 E5.26598
G1 X112.076 Y5.711 E5.30539
G1 X112.703 Y6.192 E5.34481
G1 X113.278 Y6.733 E5.3842
G1 X113.795 Y7.33 E5.4236
G1 X114.249 Y7.976 E5.46299
G1 X114.635 Y8.665 E5.50239
G1 X114.95 Y9.389 E5.54178
G1 X115.19 Y10.142 E5.58121
G1 X115.352 Y10.914 E5.62057
G1 X115.436 Y11.7 E5.66001
G1 X115.448 Y12.101 E5.68002
G1 X115.825 Y107.459 E10.43749
G1 X115.788 Y108.248 E10.47689
G1 X115.672 Y109.029 E10.51629
G1 X115.477 Y109.794 E10.55567
G1 X115.206 Y110.536 E10.59508
G1 X114.861 Y111.246 E10.63446
G1 X114.446 Y111.918 E10.67387
G1 X113.965 Y112.545 E10.71329
G1 X113.424 Y113.12 E10.75268
G1 X112.827 Y113.637 E10.79208
G1 X112.181 Y114.091 E10.83148
G1 X111.492 Y114.477 E10.87088
G1 X110.768 Y114.792 E10.91027
G1 X110.016 Y115.032 E10.94965
G1 X109.243 Y115.194 E10.98905
G1 X108.458 Y115.278 E11.02844
G1 X108.056 Y115.29 E11.0485
G1 X12.383 Y115.668 E15.82169
G1 X11.594 Y115.631 E15.86109
G1 X10.813 Y115.515 E15.90049
G1 X10.048 Y115.32 E15.93987
G1 X9.306 Y115.049 E15.97928
G1 X8.596 Y114.704 E16.01866
G1 X7.924 Y114.289 E16.05807
G1 X7.297 Y113.808 E16.09749
G1 X6.722 Y113.267 E16.13688
G1 X6.205 Y112.67 E16.17628
G1 X5.751 Y112.024 E16.21568
G1 X5.365 Y111.335 E16.25508
G1 X5.05 Y110.611 E16.29447
G1 X4.81 Y109.858 E16.3339
G1 X4.648 Y109.086 E16.37325
G1 X4.564 Y108.3 E16.41269
G1 X4.552 Y107.899 E16.4327
G1 X4.175 Y12.541 E21.19017
G1 X4.212 Y11.752 E21.22958
G1 X4.328 Y10.971 E21.26897
G1 X4.523 Y10.206 E21.30835
G1 X4.794 Y9.464 E21.34777
G1 X5.139 Y8.754 E21.38715
G1 X5.554 Y8.082 E21.42655
G1 X6.035 Y7.455 E21.46598
G1 X6.576 Y6.88 E21.50537
G0 F3600 X6.97 Y7.06
G1 F1800 X7.562 Y6.569 E21.54374
G1 X8.203 Y6.144 E21.58211
G1 X8.884 Y5.786 E21.62049
G1 X9.599 Y5.502 E21.65887
G1 X10.339 Y5.293 E21.69724
G1 X11.097 Y5.162 E21.73561
G1 X11.946 Y5.11 E21.77805
G1 X107.619 Y4.732 E26.55123
G1 X108.387 Y4.769 E26.58959
G1 X109.147 Y4.885 E26.62795
G1 X109.891 Y5.08 E26.66632
G1 X110.611 Y5.351 E26.7047
G1 X111.299 Y5.695 E26.74308
G1 X111.947 Y6.109 E26.78144
G1 X112.549 Y6.588 E26.81982
G1 X113.098 Y7.127 E26.85821
G1 X113.589 Y7.719 E26.89658
G1 X114.014 Y8.36 E26.93495
G1 X114.372 Y9.041 E26.97333
G1 X114.656 Y9.756 E27.01171
G1 X114.865 Y10.496 E27.05008
G1 X114.996 Y11.254 E27.08845
G1 X115.048 Y12.103 E27.13089
G1 X115.425 Y107.461 E31.88836
G1 X115.388 Y108.229 E31.92672
G1 X115.272 Y108.989 E31.96507
G1 X115.077 Y109.733 E32.00345
G1 X114.806 Y110.453 E32.04183
G1 X114.462 Y111.141 E32.0802
G1 X114.048 Y111.789 E32.11857
G1 X113.569 Y112.391 E32.15695
G1 X113.03 Y112.94 E32.19533
G1 X112.438 Y113.431 E32.2337
G1 X111.797 Y113.856 E32.27207
G1 X111.116 Y114.214 E32.31046
G1 X110.401 Y114.498 E32.34884
G1 X109.661 Y114.707 E32.3872
G1 X108.903 Y114.838 E32.42558
G1 X108.054 Y114.89 E32.46802
G1 X12.381 Y115.268 E37.2412
G1 X11.613 Y115.231 E37.27956
G1 X10.853 Y115.115 E37.31791
G1 X10.109 Y114.92 E37.35629
G1 X9.389 Y114.649 E37.39467
G1 X8.701 Y114.305 E37.43304
G1 X8.053 Y113.891 E37.47141
G1 X7.451 Y113.412 E37.50979
G1 X6.902 Y112.873 E37.54817
G1 X6.411 Y112.281 E37.58654
G1 X5.986 Y111.64 E37.62491
G1 X5.628 Y110.959 E37.6633
G1 X5.344 Y110.244 E37.70168
G1 X5.135 Y109.504 E37.74004
G1 X5.004 Y108.746 E37.77842
G1 X4.952 Y107.897 E37.82086
G1 X4.575 Y12.539 E42.57832
G1 X4.612 Y11.771 E42.61668
G1 X4.728 Y11.011 E42.65504
G1 X4.923 Y10.267 E42.69341
G1 X5.194 Y9.547 E42.73179
G1 X5.538 Y8.859 E42.77017
G1 X5.952 Y8.211 E42.80853
G1 X6.431 Y7.609 E42.84691
G1 X6.97 Y7.06 E42.8853
G0 F3600 X7.362 Y7.245
G1 F1800 X7.951 Y6.782 E42.92267
G1 X8.585 Y6.386 E42.95997
G1 X9.258 Y6.059 E42.9973
G1 X9.962 Y5.806 E43.03462
G1 X10.689 Y5.629 E43.07195
G1 X11.43 Y5.531 E43.10924
G1 X11.947 Y5.51 E43.13505
G1 X107.62 Y5.132 E47.90824
G1 X108.367 Y5.169 E47.94555
G1 X109.106 Y5.286 E47.98288
G1 X109.829 Y5.48 E48.02023
G1 X110.526 Y5.751 E48.05753
G1 X111.191 Y6.095 E48.09489
G1 X111.815 Y6.507 E48.13219
G1 X112.391 Y6.984 E48.1695
G1 X112.913 Y7.519 E48.2068
G1 X113.376 Y8.108 E48.24417
G1 X113.772 Y8.742 E48.28147
G1 X114.099 Y9.415 E48.3188
G1 X114.352 Y10.119 E48.35612
G1 X114.529 Y10.846 E48.39345
G1 X114.627 Y11.587 E48.43074
G1 X114.648 Y12.104 E48.45655
G1 X115.025 Y107.462 E53.21402
G1 X114.988 Y108.209 E53.25133
G1 X114.871 Y108.948 E53.28866
G1 X114.677 Y109.671 E53.32601
G1 X114.406 Y110.368 E53.36332
G1 X114.062 Y111.033 E53.40067
G1 X113.65 Y111.657 E53.43798
G1 X113.173 Y112.233 E53.47529
G1 X112.638 Y112.755 E53.51258
G1 X112.049 Y113.218 E53.54996
G1 X111.415 Y113.614 E53.58725
G1 X110.742 Y113.941 E53.62458
G1 X110.038 Y114.194 E53.6619
G1 X109.311 Y114.371 E53.69923
G1 X108.57 Y114.469 E53.73652
G1 X108.053 Y114.49 E53.76234
G1 X12.38 Y114.868 E58.53552
G1 X11.633 Y114.831 E58.57283
G1 X10.894 Y114.714 E58.61016
G1 X10.171 Y114.52 E58.64751
G1 X9.474 Y114.249 E58.68482
G1 X8.809 Y113.905 E58.72217
G1 X8.185 Y113.493 E58.75947
G1 X7.609 Y113.016 E58.79678
G1 X7.087 Y112.481 E58.83408
G1 X6.624 Y111.892 E58.87145
G1 X6.228 Y111.258 E58.90875
G1 X5.901 Y110.585 E58.94608
G1 X5.648 Y109.881 E58.9834
G1 X5.471 Y109.154 E59.02073
G1 X5.373 Y108.413 E59.05802
G1 X5.352 Y107.896 E59.08383
G1 X4.975 Y12.538 E63.8413
G1 X5.012 Y11.791 E63.87861
G1 X5.129 Y11.052 E63.91594
G1 X5.323 Y10.329 E63.95329
G1 X5.594 Y9.632 E63.9906
G1 X5.938 Y8.967 E64.02795
G1 X6.35 Y8.343 E64.06526
G1 X6.827 Y7.767 E64.10257
G1 X7.362 Y7.245 E64.13986
G0 F3600 X7.222 Y7.931
G1 F1800 X7.754 Y7.436 E64.17611
G1 X8.337 Y7.003 E64.21234
G1 X8.965 Y6.637 E64.24861
G1 X9.628 Y6.341 E64.28483
G1 X10.32 Y6.121 E64.32106
G1 X11.032 Y5.978 E64.35729
G1 X11.949 Y5.91 E64.40316
G1 X107.622 Y5.532 E69.17635
G1 X108.347 Y5.569 E69.21256
G1 X109.064 Y5.686 E69.24881
G1 X109.764 Y5.88 E69.28505
G1 X110.438 Y6.151 E69.32129
G1 X111.079 Y6.494 E69.35756
G1 X111.677 Y6.905 E69.39376
G1 X112.227 Y7.379 E69.42999
G1 X112.722 Y7.911 E69.46624
G1 X113.155 Y8.494 E69.50247
G1 X113.521 Y9.122 E69.53873
G1 X113.817 Y9.785 E69.57496
G1 X114.037 Y10.477 E69.61118
G1 X114.18 Y11.189 E69.64742
G1 X114.248 Y12.106 E69.69329
G1 X114.625 Y107.464 E74.45076
G1 X114.588 Y108.189 E74.48698
G1 X114.471 Y108.906 E74.52322
G1 X114.277 Y109.606 E74.55946
G1 X114.006 Y110.28 E74.5957
G1 X113.663 Y110.921 E74.63197
G1 X113.252 Y111.519 E74.66817
G1 X112.778 Y112.069 E74.7044
G1 X112.246 Y112.564 E74.74065
G1 X111.663 Y112.997 E74.77688
G1 X111.035 Y113.363 E74.81314
G1 X110.372 Y113.659 E74.84937
G1 X109.68 Y113.879 E74.8856
G1 X108.968 Y114.022 E74.92183
G1 X108.051 Y114.09 E74.9677
G1 X12.378 Y114.468 E79.74088
G1 X11.653 Y114.431 E79.7771
G1 X10.936 Y114.314 E79.81335
G1 X10.236 Y114.12 E79.84959
G1 X9.562 Y113.849 E79.88583
G1 X8.921 Y113.506 E79.9221
G1 X8.323 Y113.095 E79.9583
G1 X7.773 Y112.621 E79.99452
G1 X7.278 Y112.089 E80.03078
G1 X6.845 Y111.506 E80.06701
G1 X6.479 Y110.878 E80.10327
G1 X6.183 Y110.215 E80.1395
G1 X5.963 Y109.523 E80.17572
G1 X5.82 Y108.811 E80.21195
G1 X5.752 Y107.894 E80.25783
G1 X5.375 Y12.536 E85.0153
G1 X5.412 Y11.811 E85.05151
G1 X5.529 Y11.094 E85.08776
G1 X5.723 Y10.394 E85.124
G1 X5.994 Y9.72 E85.16024
G1 X6.337 Y9.079 E85.19651
G1 X6.748 Y8.481 E85.23271
G1 X7.222 Y7.931 E85.26893
G0 F3600 X7.617 Y8.1
G1 F1800 X8.145 Y7.635 E85.30404
G1 X8.722 Y7.232 E85.33915
G1 X9.342 Y6.897 E85.37431
G1 X9.995 Y6.635 E85.40941
G1 X10.674 Y6.448 E85.44455
G1 X11.369 Y6.34 E85.47964
G1 X11.951 Y6.31 E85.50871
G1 X107.624 Y5.932 E90.28189
G1 X108.327 Y5.969 E90.31701
G1 X109.021 Y6.086 E90.35213
G1 X109.697 Y6.28 E90.38721
G1 X110.347 Y6.551 E90.42235
G1 X110.963 Y6.893 E90.4575
G1 X111.535 Y7.302 E90.49258
G1 X112.058 Y7.774 E90.52773
G1 X112.523 Y8.302 E90.56283
G1 X112.926 Y8.879 E90.59794
G1 X113.261 Y9.499 E90.6331
G1 X113.523 Y10.152 E90.6682
G1 X113.71 Y10.831 E90.70334
G1 X113.818 Y11.526 E90.73843
G1 X113.848 Y12.107 E90.76746
G1 X114.225 Y107.465 E95.52492
G1 X114.188 Y108.168 E95.56004
G1 X114.071 Y108.863 E95.59521
G1 X113.877 Y109.539 E95.63029
G1 X113.606 Y110.189 E95.66543
G1 X113.264 Y110.805 E95.70058
G1 X112.855 Y111.377 E95.73566
G1 X112.383 Y111.9 E95.77081
G1 X111.855 Y112.365 E95.80591
G1 X111.278 Y112.768 E95.84102
G1 X110.658 Y113.103 E95.87618
G1 X110.005 Y113.365 E95.91128
G1 X109.326 Y113.552 E95.94642
G1 X108.631 Y113.66 E95.98151
G1 X108.049 Y113.69 E96.01058
G1 X12.376 Y114.068 E100.78377
G1 X11.673 Y114.031 E100.81889
G1 X10.979 Y113.914 E100.854
G1 X10.303 Y113.72 E100.88909
G1 X9.653 Y113.449 E100.92422
G1 X9.037 Y113.107 E100.95937
G1 X8.465 Y112.698 E100.99445
G1 X7.942 Y112.226 E101.0296
G1 X7.477 Y111.698 E101.0647
G1 X7.074 Y111.121 E101.09982
G1 X6.739 Y110.501 E101.13497
G1 X6.477 Y109.848 E101.17008
G1 X6.29 Y109.169 E101.20521
G1 X6.182 Y108.474 E101.2403
G1 X6.152 Y107.893 E101.26933
G1 X5.775 Y12.535 E106.0268
G1 X5.812 Y11.832 E106.06192
G1 X5.929 Y11.137 E106.09708
G1 X6.123 Y10.461 E106.13217
G1 X6.394 Y9.811 E106.1673
G1 X6.736 Y9.195 E106.20245
G1 X7.145 Y8.623 E106.23753
G1 X7.617 Y8.1 E106.27268
G0 F3600 X8.011 Y8.276
G1 F1800 X8.534 Y7.841 E106.30662
G1 X9.105 Y7.47 E106.34059
G1 X9.716 Y7.168 E106.37459
G1 X10.357 Y6.94 E106.40854
G1 X11.021 Y6.789 E106.44251
G1 X11.952 Y6.71 E106.48912
G1 X107.625 Y6.332 E111.26231
G1 X108.305 Y6.369 E111.29628
G1 X108.976 Y6.486 E111.33026
G1 X109.628 Y6.681 E111.36422
G1 X110.253 Y6.95 E111.39816
G1 X110.843 Y7.291 E111.43216
G1 X111.388 Y7.699 E111.46613
G1 X111.882 Y8.168 E111.50011
G1 X112.317 Y8.691 E111.53405
G1 X112.688 Y9.262 E111.56802
G1 X112.99 Y9.873 E111.60202
G1 X113.218 Y10.514 E111.63597
G1 X113.369 Y11.178 E111.66994
G1 X113.448 Y12.109 E111.71655
G1 X113.825 Y107.467 E116.47402
G1 X113.788 Y108.147 E116.508
G1 X113.671 Y108.818 E116.54198
G1 X113.476 Y109.47 E116.57593
G1 X113.207 Y110.095 E116.60988
G1 X112.866 Y110.685 E116.64387
G1 X112.458 Y111.23 E116.67784
G1 X111.989 Y111.724 E116.71182
G1 X111.466 Y112.159 E116.74576
G1 X110.895 Y112.53 E116.77973
G1 X110.284 Y112.832 E116.81374
G1 X109.643 Y113.06 E116.84768
G1 X108.979 Y113.211 E116.88165
G1 X108.048 Y113.29 E116.92827
G1 X12.375 Y113.668 E121.70145
G1 X11.695 Y113.631 E121.73543
G1 X11.024 Y113.514 E121.76941
G1 X10.372 Y113.319 E121.80336
G1 X9.747 Y113.05 E121.83731
G1 X9.157 Y112.709 E121.8713
G1 X8.612 Y112.301 E121.90527
G1 X8.118 Y111.832 E121.93925
G1 X7.683 Y111.309 E121.97319
G1 X7.312 Y110.738 E122.00716
G1 X7.01 Y110.127 E122.04117
G1 X6.782 Y109.486 E122.07511
G1 X6.631 Y108.822 E122.10908
G1 X6.552 Y107.891 E122.1557
G1 X6.175 Y12.533 E126.91316
G1 X6.212 Y11.853 E126.94714
G1 X6.329 Y11.182 E126.98112
G1 X6.524 Y10.53 E127.01507
G1 X6.793 Y9.905 E127.04902
G1 X7.134 Y9.315 E127.08302
G1 X7.542 Y8.77 E127.11698
G1 X8.011 Y8.276 E127.15097
G0 F3600 X8.404 Y8.46
G1 F1800 X8.922 Y8.056 E127.18374
G1 X9.486 Y7.718 E127.21654
G1 X10.086 Y7.451 E127.24931
G1 X10.714 Y7.259 E127.28207
G1 X11.361 Y7.145 E127.31485
G1 X11.954 Y7.11 E127.34448
G1 X107.627 Y6.732 E132.11767
G1 X108.283 Y6.769 E132.15045
G1 X108.929 Y6.886 E132.1832
G1 X109.557 Y7.081 E132.21601
G1 X110.156 Y7.35 E132.24877
G1 X110.718 Y7.69 E132.28154
G1 X111.235 Y8.095 E132.3143
G1 X111.698 Y8.561 E132.34707
G1 X112.102 Y9.079 E132.37985
G1 X112.44 Y9.643 E132.41265
G1 X112.707 Y10.243 E132.44542
G1 X112.899 Y10.871 E132.47818
G1 X113.013 Y11.518 E132.51095
G1 X113.048 Y12.111 E132.54059
G1 X113.425 Y107.469 E137.29806
G1 X113.388 Y108.125 E137.33084
G1 X113.271 Y108.771 E137.36359
G1 X113.076 Y109.399 E137.3964
G1 X112.807 Y109.998 E137.42916
G1 X112.467 Y110.56 E137.46193
G1 X112.062 Y111.077 E137.49469
G1 X111.596 Y111.54 E137.52747
G1 X111.078 Y111.944 E137.56024
G1 X110.514 Y112.282 E137.59304
G1 X109.914 Y112.549 E137.62581
G1 X109.286 Y112.741 E137.65857
G1 X108.639 Y112.855 E137.69135
G1 X108.046 Y112.89 E137.72098
G1 X12.373 Y113.268 E142.49417
G1 X11.717 Y113.231 E142.52695
G1 X11.071 Y113.114 E142.5597
G1 X10.443 Y112.919 E142.59251
G1 X9.844 Y112.65 E142.62527
G1 X9.282 Y112.31 E142.65804
G1 X8.765 Y111.905 E142.6908
G1 X8.302 Y111.439 E142.72357
G1 X7.898 Y110.921 E142.75635
G1 X7.56 Y110.357 E142.78915
G1 X7.293 Y109.757 E142.82192
G1 X7.101 Y109.129 E142.85468
G1 X6.987 Y108.482 E142.88745
G1 X6.952 Y107.889 E142.91709
G1 X6.575 Y12.531 E147.67456
G1 X6.612 Y11.875 E147.70734
G1 X6.729 Y11.229 E147.74009
G1 X6.924 Y10.601 E147.7729
G1 X7.193 Y10.002 E147.80566
G1 X7.533 Y9.44 E147.83843
G1 X7.938 Y8.923 E147.87119
G1 X8.404 Y8.46 E147.90397
G0 F3600 X8.334 Y9.083
G1 F1800 X8.796 Y8.651 E147.93552
G1 X9.308 Y8.281 E147.96704
G1 X9.863 Y7.978 E147.99858
G1 X10.451 Y7.748 E148.03008
G1 X11.065 Y7.594 E148.06167
G1 X11.955 Y7.51 E148.10627
G1 X107.628 Y7.132 E152.87945
G1 X108.259 Y7.17 E152.91099
G1 X108.881 Y7.286 E152.94255
G1 X109.482 Y7.481 E152.97408
G1 X110.054 Y7.749 E153.00559
G1 X110.588 Y8.088 E153.03715
G1 X111.075 Y8.491 E153.06868
G1 X111.507 Y8.953 E153.10024
G1 X111.877 Y9.465 E153.13175
G1 X112.18 Y10.02 E153.1633
G1 X112.41 Y10.608 E153.1948
G1 X112.564 Y11.222 E153.22638
G1 X112.648 Y12.112 E153.27098
G1 X113.025 Y107.47 E158.02845
G1 X112.987 Y108.101 E158.05999
G1 X112.871 Y108.723 E158.09155
G1 X112.676 Y109.324 E158.12308
G1 X112.408 Y109.896 E158.15459
G1 X112.069 Y110.43 E158.18615
G1 X111.666 Y110.917 E158.21768
G1 X111.204 Y111.349 E158.24924
G1 X110.692 Y111.719 E158.28075
G1 X110.137 Y112.022 E158.3123
G1 X109.549 Y112.252 E158.3438
G1 X108.935 Y112.406 E158.37538
G1 X108.045 Y112.49 E158.41998
G1 X12.372 Y112.868 E163.19317
G1 X11.741 Y112.83 E163.2247
G1 X11.119 Y112.714 E163.25627
G1 X10.518 Y112.519 E163.28779
G1 X9.946 Y112.251 E163.31931
G1 X9.412 Y111.912 E163.35086
G1 X8.925 Y111.509 E163.3824
G1 X8.493 Y111.047 E163.41396
G1 X8.123 Y110.535 E163.44547
G1 X7.82 Y109.98 E163.47702
G1 X7.59 Y109.392 E163.50852
G1 X7.436 Y108.778 E163.5401
G1 X7.352 Y107.888 E163.5847
G1 X6.975 Y12.53 E168.34217
G1 X7.013 Y11.899 E168.3737
G1 X7.129 Y11.277 E168.40527
G1 X7.324 Y10.676 E168.43679
G1 X7.592 Y10.104 E168.46831
G1 X7.931 Y9.57 E168.49986
G1 X8.334 Y9.083 E168.5314
G0 F3600 X8.729 Y9.251
G1 F1800 X9.186 Y8.852 E168.56167
G1 X9.691 Y8.517 E168.5919
G1 X10.236 Y8.251 E168.62216
G1 X10.811 Y8.06 E168.65239
G1 X11.407 Y7.945 E168.68267
G1 X11.957 Y7.91 E168.71016
G1 X107.63 Y7.532 E173.48335
G1 X108.235 Y7.57 E173.51359
G1 X108.83 Y7.686 E173.54383
G1 X109.404 Y7.88 E173.57406
G1 X109.948 Y8.148 E173.60432
G1 X110.452 Y8.486 E173.63459
G1 X110.907 Y8.886 E173.66482
G1 X111.306 Y9.343 E173.69508
G1 X111.641 Y9.848 E173.72532
G1 X111.907 Y10.393 E173.75557
G1 X112.098 Y10.968 E173.7858
G1 X112.213 Y11.564 E173.81608
G1 X112.248 Y12.114 E173.84358
G1 X112.625 Y107.472 E178.60105
G1 X112.587 Y108.077 E178.63129
G1 X112.471 Y108.672 E178.66153
G1 X112.277 Y109.246 E178.69176
G1 X112.009 Y109.79 E178.72202
G1 X111.671 Y110.294 E178.75229
G1 X111.271 Y110.749 E178.78252
G1 X110.814 Y111.148 E178.81278
G1 X110.309 Y111.483 E178.84302
G1 X109.764 Y111.749 E178.87327
G1 X109.189 Y111.94 E178.9035
G1 X108.593 Y112.055 E178.93379
G1 X108.043 Y112.09 E178.96128
G1 X12.37 Y112.468 E183.73446
G1 X11.765 Y112.43 E183.76471
G1 X11.17 Y112.314 E183.79495
G1 X10.596 Y112.12 E183.82518
G1 X10.052 Y111.852 E183.85543
G1 X9.548 Y111.514 E183.88571
G1 X9.093 Y111.114 E183.91593
G1 X8.694 Y110.657 E183.9462
G1 X8.359 Y110.152 E183.97643
G1 X8.093 Y109.607 E184.00669
